X:1
T:La Schottische
T:La Schottische
T:C. Pugni
T:Scritto con MuseScore, un software libero e gratuito: http://musescore.org/it
C:C. Pugni
Z:Scritto con MuseScore, un software libero e gratuito: http://musescore.org/it
%%score { 1 | 2 }
L:1/8
M:2/4
K:G
V:1 treble nm="Piano" snm="Pno."
V:2 bass 
V:1
!f! z2 z B/c/ |: Bb ac | Bg/B/ d2 | A/c/f/A/ d2 | B/d/f/c/ dB/c/ | db ac | Bg/B/ d2 | %7
!<(! A/B/c/d/ ba!<)! |1 g2 [GBda]B/c/ :|2 g2 [GBda]2 |:!p! d/b/ |!p! gB!>(![df]>!>)![ce] | %12
 e'/a/c'/f/ a z | d'/g/b/d/ g[Bd]/b/ | gB!>(!([df]>!>)![ce]) | [Bd][GB]/e/ [Bd]2 | %16
 e'/a/c'/f/ [cfb]>a |1 [Bg]2 [GBdg] :|2 [Bg]2 [GBdg]B/c/!D.C.! |:[K:D] z2 |"^TRIO."!mf! ff fe/d/ | %21
 cBA d/e/ | f[Bb] [Aa]e/f/ | g[Bb] [Aa]d/f/ | ff fe/d/ | cB Ad/e/ | f[Bb] [Aa]e/f/ | gc d :: %28
!f! [ee'][^d^d'] [=d=d']>^g | !>![Bb]!>![Aa] !>!e>[Aa] | [^G^g]B d>[Bb] | [Aa]c e>e | %32
 [ee'][^d^d'] [=d=d']>^g | [Bb][Aa] e>[Aa] | [^G^g]B d>A | AA[Acea] z!D.C.! :: %36
[K:G]O!8va(! g'b/g'/ f'/d'/c'/a/!8va)! | b/g/d/B/ c/d/f/a/ | b/d'/c'/b/ a/c'/e/a/ | %39
 b/d'/g/b/ a/e/f/d/ |!8va(! g'g/g'/ f'/d'/c'/a/ | b'/g'/d'/b/ c'/d'/f'/a'/ | %42
 b'/d''/g'/b'/ a'/e'/f'/d'/ | g'2!8va)! [Bdgb] z | [GBdg]2 z2!fine! |] %45
V:2
 G,,[G,B,D][G,B,D][G,B,D] |: G,,[G,B,D] D,[F,A,D] | G,,[G,B,D][G,B,D][G,B,D] | D,[A,CD] D,[A,CD] | %4
 G,,[G,B,D][G,B,D][G,B,D] | G,,[G,B,D] D,[F,A,D] | G,,[G,B,D][G,B,D][G,B,D] | %7
 D,[F,A,CD][F,A,CD][F,A,CD] |1 [G,,G,][G,B,D]/[G,B,D]/ z2 :|2 [G,,G,][G,B,D][G,B,D] z |: z | %11
 G,[B,D] C,[CE] | G,[B,D] G,[B,D] | D,[F,A,CD][F,A,CD][F,A,CD] | G,[G,B,][G,B,][G,B,] | %15
 G,[B,D]G,[B,D] | D,[F,A,CD][F,A,CD][F,A,CD] |1 [G,,G,][G,B,D][G,B,D] :|2 %18
 [G,,G,][G,B,D] [G,B,D] z |:[K:D] z2 | [D,F,A,D][D,F,A,D] [D,F,A,D] z | %21
 [D,A,C][D,G,B,] [D,F,A,] z | D,[F,A,D] C,[E,G,A,] | A,,[E,G,A,] C,[F,A,D] | %24
 [D,F,A,D][D,F,A,D] [D,F,A,D] z | [D,A,C][D,G,B,][D,F,A,] z | D,[F,A,D] A,,[E,G,A,] | %27
 A,,[E,G,A,] [D,F,A,] :: !>![^G,,^G,]!>![G,B,E]!>![G,B,E][G,B,E] | [A,,A,][A,CE] [A,CE][A,CE] | %30
 [E,,E,][^G,CDE][G,CDE][G,CDE] | [A,,A,][A,CE][A,CE][A,CE] | [^G,,^G,][G,B,E][G,B,E][G,B,E] | %33
 [A,,A,][A,CE][A,CE][A,CE] | [E,,E,][^G,B,DE][G,B,DE][G,B,DE] | [A,,B,][A,CE][A,CE] z :: %36
[K:G]"^TRIO." G,[B,D] D,[A,CD] | G,[B,D] F,[A,CD] | G,[B,D] C,[E,A,C] | D,[G,B,] D,[F,A,C] | %40
 G,[B,D] D,[A,CD] | G,[B,D] C,[E,A,C] | D,[G,B,] D,[F,A,CD] | [G,B,D]2 [G,B,DG] z | %44
 [G,,B,,D,G,]2 z2 |] %45

